.local/share/icons/Gruvbox-Plus-Dark/panel/22/cisco-tray-reconnecting.svg

<svg xmlns="http://www.w3.org/2000/svg" width="22" height="22" version="1.1">
 <defs>
  <style id="current-color-scheme" type="text/css">
   .ColorScheme-Text { color:#ebdbb2; } .ColorScheme-Highlight { color:#458588; }
  </style>
 </defs>
 <path style="fill:currentColor" class="ColorScheme-Text" d="M 11 3 C 8.009725 3 5.4180719 4.6269634 4.0449219 7.0449219 C 5.2107109 6.3828743 6.558275 6 8 6 C 8.524759 6 9.0371571 6.052885 9.5332031 6.1484375 C 9.5350031 6.1437775 9.5372625 6.1394176 9.5390625 6.1347656 C 9.6481115 5.8511848 9.7727484 5.5773222 9.9121094 5.3105469 C 9.9250094 5.2856729 9.9380319 5.2610491 9.9511719 5.2363281 C 10.078978 4.9978441 10.218628 4.7680924 10.369141 4.5449219 C 10.399021 4.5002339 10.426281 4.454197 10.457031 4.4101562 C 10.609004 4.1942902 10.771315 3.9865308 10.943359 3.7871094 C 10.971399 3.7544164 10.996831 3.719726 11.025391 3.6875 C 11.229896 3.457986 11.444498 3.2379308 11.673828 3.0332031 C 11.45122 3.0147621 11.227527 3 11 3 z M 14.226562 3.6777344 C 13.937176 3.8282219 13.666429 4.0069992 13.408203 4.2011719 C 13.344033 4.2491449 13.284789 4.3030693 13.222656 4.3535156 C 13.008473 4.5286484 12.802873 4.7149958 12.615234 4.9179688 C 12.585374 4.9499898 12.554551 4.9809989 12.525391 5.0136719 C 12.067874 5.5309607 11.695942 6.1253381 11.435547 6.7792969 C 13.317326 7.6724994 14.774324 9.2830553 15.496094 11.253906 C 15.767003 11.121189 16.055356 11.022003 16.367188 11.003906 L 16.371094 11.003906 C 16.454084 10.999406 16.538104 10.999406 16.621094 11.003906 C 17.466123 11.049106 18.210529 11.560276 18.601562 12.296875 L 18.804688 12.679688 C 18.922432 12.137315 19 11.579339 19 11 C 19 7.7183319 17.041258 4.9142825 14.226562 3.6777344 z M 8 8 C 5.920529 8 4.0933101 9.0464652 3.0175781 10.644531 C 3.0123781 10.76324 3 10.87997 3 11 C 3 15.432 6.568 19 11 19 C 11.119372 19 11.235451 18.987552 11.353516 18.982422 L 11.355469 18.982422 C 11.647475 18.785859 11.914146 18.556265 12.166016 18.3125 C 11.940951 17.65545 11.950955 16.906189 12.306641 16.236328 L 12.603516 15.677734 C 12.583346 15.664094 12.563279 15.650309 12.542969 15.636719 C 12.25712 15.445135 11.982537 15.239592 11.724609 15.013672 C 11.721509 15.010972 11.718044 15.008559 11.714844 15.005859 C 11.453487 14.776245 11.209729 14.527297 10.980469 14.265625 C 10.949319 14.230125 10.919202 14.194255 10.888672 14.158203 C 10.678696 13.909818 10.481461 13.652077 10.302734 13.378906 C 10.289814 13.359196 10.276412 13.340143 10.263672 13.320312 C 10.082505 13.037983 9.9224208 12.740932 9.7773438 12.435547 C 9.7493937 12.376817 9.7238156 12.317331 9.6972656 12.257812 C 9.5660386 11.963138 9.4469465 11.662083 9.3515625 11.349609 C 9.3450625 11.328469 9.3363681 11.308329 9.3300781 11.287109 C 9.2346381 10.964815 9.1659991 10.631172 9.1113281 10.292969 C 9.0985081 10.213799 9.0866619 10.134642 9.0761719 10.054688 C 9.0308831 9.7089918 9 9.358483 9 9 C 9 8.694348 9.0175413 8.3940171 9.0507812 8.0976562 C 8.7092773 8.0377183 8.359197 8 8 8 z M 11.013672 8.8125 C 11.011672 8.87577 11 8.936238 11 9 C 11 9.248781 11.019648 9.4918529 11.048828 9.7324219 C 11.057728 9.8060019 11.070521 9.8784539 11.082031 9.9511719 C 11.109961 10.126892 11.144731 10.300546 11.1875 10.470703 C 11.20522 10.541383 11.221998 10.611992 11.242188 10.681641 C 11.308087 10.90838 11.383569 11.131108 11.474609 11.345703 C 11.571209 11.573403 11.683724 11.79182 11.806641 12.003906 C 11.823061 12.032326 11.840552 12.059771 11.857422 12.087891 C 11.972984 12.279917 12.098646 12.465455 12.234375 12.642578 C 12.247655 12.659958 12.259968 12.678092 12.273438 12.695312 C 12.580001 13.086417 12.93286 13.438044 13.326172 13.742188 C 13.342332 13.754708 13.35871 13.766937 13.375 13.779297 C 13.43028 13.821147 13.492081 13.854407 13.548828 13.894531 L 13.941406 13.158203 C 13.681217 11.296243 12.570564 9.7158618 11.013672 8.8125 z M 16.425781 12.001953 A 1.4077754 1.5301004 0 0 0 15.28125 12.765625 L 14.234375 14.734375 L 13.189453 16.705078 A 1.4077754 1.5301004 0 0 0 14.40625 19 L 16.5 19 L 18.591797 19 A 1.4077754 1.5301004 0 0 0 19.810547 16.705078 L 18.763672 14.734375 L 17.71875 12.765625 A 1.4077754 1.5301004 0 0 0 16.566406 12.001953 A 1.4077754 1.5301004 0 0 0 16.425781 12.001953 z M 16 13 L 17 13 L 17 16 L 16 16 L 16 13 z M 16 17 L 17 17 L 17 18 L 16 18 L 16 17 z"/>
</svg>

<svg width="22" height="22" version="1.1" xmlns="http://www.w3.org/2000/svg">
  <defs>
    <style id="current-color-scheme" type="text/css">.ColorScheme-Text { color:#ebdbb2; } .ColorScheme-Highlight { color:#458588; } .ColorScheme-NeutralText { color:#fe8019; } .ColorScheme-PositiveText { color:#689d6a; } .ColorScheme-NegativeText { color:#fb4934; }</style>
  </defs>
  <path class="ColorScheme-Text" d="m15.28 12.77-2.08 3.936c-0.5414 1.019 0.1225 2.297 1.205 2.299h4.186c1.084-3.04e-4 1.761-1.275 1.219-2.295l-2.092-3.94c-0.5218-0.983-1.88-1.053-2.438 0zm0.7192 0.2343h1v3h-1zm0 4h1v1h-1zm-5.001-14c-2.99 0-5.582 1.627-6.955 4.045 1.166-0.662 2.513-1.045 3.955-1.045 0.9772 0 1.532 0.1424 1.539 0.1348 0.52-1.353 1.371-2.42 2.135-3.102-0.2226-0.01844-0.4463-0.0332-0.6738-0.0332zm3.227 0.6777c-0.5409 0.2813-2.034 1.201-2.791 3.102 1.877 0.8907 3.347 2.486 4.07 4.449 1.151-0.5531 2.495-0.0636 3.096 1.068l0.2129 0.4004c0.1195-0.5464 0.1855-1.113 0.1855-1.697 0-3.282-1.959-6.086-4.773-7.322zm-6.227 4.322c-2.079 0-3.907 1.046-4.982 2.645-0.0052 0.1187-0.01758 0.2354-0.01758 0.3555 0 4.432 3.568 8 8 8 0.1194 0 0.2354-0.01245 0.3535-0.01758h2e-3c0.2866-0.1929 0.5528-0.4119 0.8008-0.6504-0.3627-0.9947 0.01146-1.81 0.4473-2.658-2.16-1.442-3.937-4.155-3.553-7.576-0.3415-0.05994-0.6914-0.09766-1.051-0.09766zm3.014 0.8125c-0.05387 1.704 0.6453 3.775 2.529 5.092l0.3848-0.7227c-0.1715-1.228-0.7919-3.138-2.914-4.369z" fill="currentColor"/>
</svg>
